X:1870
T:Famous Ballymote
O:england
R:reel
D:Bothy Band: 1975
M:C|
K:Dmix
FDAD FA~A2|cABG EFGE|FDAD FAAB|cAGE EDDE:|
|:FDFA d2ed|cABG EFGE|FDFA d2ed|cAGE EDDE:|
"variations"
|:FDAD FAAB|cBcG EFGE|FDAD FGAB|cAGE ED~D2:|
|:FDFA d2dB|c2cG EFGE|FDFA d2dB|cAGE ED~D2:|


